X: 2
T: The Lark In The Morning
R: jig
M: 6/8
L: 1/8
K: Dmaj
~A3 AdB | AFA D3 | AFA gfe | fdB BAF |~A3 AdB | AFA D2 f | gfe fed | edB BdB :|Adf ~a3 | abf a3 | Adf a2 f | gfe fdB |Adf ~a3 | abf a2 f | gfe fed | edB BdB :|


Tune 1578	Setting 14986

